svg/300/outlined/domain_verification-fill.svg

<svg xmlns="http://www.w3.org/2000/svg" width="48" height="48" viewBox="0 -960 960 960"><path d="M157.694-180.001q-23.529 0-40.611-17.082-17.082-17.082-17.082-40.611v-484.612q0-23.529 17.082-40.611 17.082-17.082 40.611-17.082h644.612q23.529 0 40.611 17.082 17.082 17.082 17.082 40.611v484.612q0 23.529-17.082 40.611-17.082 17.082-40.611 17.082H157.694Zm-12.309-471.768h669.23v-70.537q0-4.616-3.846-8.463-3.847-3.846-8.463-3.846H157.694q-4.616 0-8.463 3.846-3.846 3.847-3.846 8.463v70.537ZM438-322.77l201.999-201.999-33.23-33.23L438-389.23l-84.769-84.769-33.23 33.23L438-322.77Z"/></svg>

<svg xmlns="http://www.w3.org/2000/svg" width="48" height="48" viewBox="0 -960 960 960"><path d="M157.69-180q-23.53 0-40.61-17.08T100-237.69v-484.62q0-23.53 17.08-40.61T157.69-780h644.62q23.53 0 40.61 17.08T860-722.31v484.62q0 23.53-17.08 40.61T802.31-180H157.69Zm-12.3-471.77h669.22v-70.54q0-4.61-3.84-8.46-3.85-3.84-8.46-3.84H157.69q-4.61 0-8.46 3.84-3.84 3.85-3.84 8.46v70.54Zm292.61 329 202-202L606.77-558 438-389.23 353.23-474 320-440.77l118 118Z"/></svg>
